X:1
T:Title
%%score [ ( 1 2 ) ( 3 4 ) ] { ( 5 6 ) | ( 7 8 ) }
L:1/8
Q:1/4=120
M:4/4
K:A
V:1 treble nm="Midi_74"
V:2 treble 
V:3 bass nm="Midi_74"
V:4 bass 
V:5 treble nm="Org."
V:6 treble 
V:7 bass 
V:8 bass 
V:1
 c8 | c4 B4 |{B} A8 || (B6 F2) | (G2 A2) (B2 c2) | d4 c4 |{c} B8 || e8 | e4 d4 |{d} c8 || (A6 E2) | %11
 (F2 G2)"^William Henry Havergal\n(1793-1870)" (A2 B2) | c4 B4 | A8 |] %14
V:2
 (E6 C2) | (D2 E2) (F2 G2) |{G} F8 || F8 | E4 E4 | E4 E4 | E8 || (G6 E2) | (F2 G2) (A2 B2) | %9
{B} A8 || E8 | D4 (E2 F2) | E4 D4 | C8 |] %14
V:3
 A,8 | (A,2 G,2) (F,2 D2) | C8 || B,8 | (B,2 A,2) (G,2 A,2) | B,4 A,4 |{A,} G,8 || C8 | %8
 (C2 B,2) (A,2 E2) | E8 || A,8 | (A,2 B,2) A,4 | A,4 G,4 | A,8 |] %14
V:4
 (A,6 A,,2) | (B,,2 C,2) (D,2 E,2) | F,8 || D,8 | (D,2 C,2) (B,,2 A,,2) | G,,4 A,,4 | E,8 || %7
 (C6 C,2) | (D,2 E,2) (F,2 G,2) | A,8 || C,8 | D,4 (C,2 D,2) | E,4 E,4 | A,,8 |] %14
V:5
 [Ac]8 | c4 [DB]4 |{B} [CA]8 || B6 F2 | G2 A2 [GB]2 [Ac]2 | [Bd]4 [Ac]4 |{c} [GB]8 || [EGe]8 | %8
 e4 d4 |{d} c8 || A6 E2 | F2 G2 A2 B2 | [Ac]4 [GB]4 | A8 |] %14
V:6
 E6 C2 | D2 E2 F2 G2 |{G} F8 || [B,F]8 | E4 E4 | E4 E4 |{A} E8 || x8 | F2 G2 A2 [EB]2 |{B} [EA]8 || %10
 [A,E]8 | D4 E2 F2 | E4 E2 D2 | C8 |] %14
V:7
 A,8 | A,2 G,2 F,2 x2 | x8 || x8 | x8 | x8 | x8 || C8 | C2 B,2 A,2 x2 | x8 || x8 | x8 | x8 | x8 |] %14
V:8
 A,6 A,,2 | B,,2 C,2 D,2 E,2 | F,8 || D,8 | D,2 C,2 B,,2 A,,2 | G,,4 A,,4 | E,8 || C6 C,2 | %8
 D,2 E,2 F,2 G,2 | A,8 || C,8 | D,4 C,2 D,2 | E,4 E,4 | A,,8 |] %14

